resources/SLDS/icons/standard/shift_template.svg

<svg data-name="Layer 1" xmlns="http://www.w3.org/2000/svg" width="100" height="100" viewBox="0 0 100 100"><path d="M72,26H67V24a4,4,0,0,0-8,0v2H41V24a4,4,0,0,0-8,0v2H28a6,6,0,0,0-6,6v2a2,2,0,0,0,2,2H76a2,2,0,0,0,2-2V32A6,6,0,0,0,72,26Zm4,16H24a2,2,0,0,0-2,2V74a6,6,0,0,0,6,6H72a6,6,0,0,0,6-6V44A2,2,0,0,0,76,42ZM45.3,74.1a1.09,1.09,0,0,1-1.1,1H37A1.09,1.09,0,0,1,36,74V59.9a1.09,1.09,0,0,1,1.1-1h7.3a1.09,1.09,0,0,1,1,1.1l-.1,14.1Zm19.9.2a1.09,1.09,0,0,1-1.1,1H50.7a1.09,1.09,0,0,1-1-1.1V59.9a1.09,1.09,0,0,1,1.1-1H64.3a1.09,1.09,0,0,1,1,1.1l-.1,14.3Zm.2-20.6a1.09,1.09,0,0,1-1.1,1H37a1.09,1.09,0,0,1-1-1.1V47.3a1.09,1.09,0,0,1,1.1-1H64.3a1.09,1.09,0,0,1,1,1.1C65.4,47.4,65.4,53.7,65.4,53.7Z" fill="#fff"/></svg>

<svg xmlns="http://www.w3.org/2000/svg" height="100" width="100" viewBox="0 0 100 100" fill="#fff"><path d="M72 26h-5v-2a4 4 0 0 0-8 0v2H41v-2a4 4 0 0 0-8 0v2h-5a6 6 0 0 0-6 6v2a2 2 0 0 0 2 2h52a2 2 0 0 0 2-2v-2a6 6 0 0 0-6-6zm4 16H24a2 2 0 0 0-2 2v30a6 6 0 0 0 6 6h44a6 6 0 0 0 6-6V44a2 2 0 0 0-2-2zM45.3 74.1a1 1 0 0 1-1.1 1H37a1 1 0 0 1-1-1.1V59.9a1 1 0 0 1 1.1-1h7.3a1 1 0 0 1 1 1.1zm19.9.2a1 1 0 0 1-1.1 1H50.7a1 1 0 0 1-1-1.1V59.9a1 1 0 0 1 1.1-1h13.5a1 1 0 0 1 1 1.1zm.2-20.6a1 1 0 0 1-1.1 1H37a1 1 0 0 1-1-1.1v-6.3a1 1 0 0 1 1.1-1h27.2a1 1 0 0 1 1 1.1z"/></svg>
